!!!COM: (Edward) Benjamin Britten
!!!OTL: [T795_Bri-w26p27h21m6-14]
**kern	**dynam	**kern	**dynam	**kern	**dynam	**kern	**dynam	**kern	**dynam	**kern	**dynam	**kern	**dynam	**text
*grp:A	*	*grp:A	*	*grp:A	*	*grp:A	*	*grp:A	*	*grp:B	*	*grp:A	*	*
*part7	*part7	*part6	*part6	*part5	*part5	*part4	*part4	*part3	*part3	*part2	*part2	*part1	*part1	*part1
*staff7	*	*staff6	*	*staff5	*	*staff4	*	*staff3	*	*staff2	*	*staff1	*staff1	*staff1
*I"Contrabass	*	*I"Violoncello	*	*I"Viola	*	*I"Violin II	*	*I"Violin I	*	*I"Horn in F	*	*I"Voice	*	*
*I'Cb.	*	*I'Vc.	*	*I'Vla.	*	*I'Vln. II	*	*I'Vln. I	*	*I'Hn.	*	*I'Voice	*	*
*clefF4	*	*clefF4	*	*clefC3	*	*clefG2	*	*clefG2	*	*clefG2	*	*clefG2	*	*
*ITrd7c12	*	*	*	*	*	*	*	*	*	*ITrd4c7	*	*ITrd7c12	*	*
*k[b-e-]	*	*k[b-e-]	*	*k[b-e-]	*	*k[b-e-]	*	*k[b-e-]	*	*k[b-e-]	*	*k[b-e-]	*	*
*B-:	*	*B-:	*	*B-:	*	*B-:	*	*B-:	*	*B-:	*	*B-:	*	*
*M2/4	*	*M2/4	*	*M2/4	*	*M2/4	*	*M2/4	*	*M6/8	*	*M2/4	*	*
*	*	*	*	*	*	*	*	*	*	*Xtuplet	*	*	*	*
!!LO:TX:B:t=Presto e leggiero ([quarter] = 168-176)]
!LO:TX:a:t=[sempre pizz.]	!LO:DY:t=[ %s ]	!LO:TX:a:t=[sempre pizz.]	!LO:DY:t=[ %s ]	!LO:TX:a:t=[sempre pizz.]	!LO:DY:t=[ %s ]	!LO:TX:a:t=[sempre pizz.]	!LO:DY:t=[ %s ]	!LO:TX:a:t=[sempre pizz.]	!LO:DY:t=[ %s ]	!	!LO:DY:t=[ %s ]	!	!LO:DY:t=[ %s ]	!
4r	4ryy	4r	4ryy	4r	4ryy	4r	4ryy	4r	4ryy	12ryy	4ryy	4r	4ryy	.
.	.	.	.	.	.	.	.	.	.	12ryy	.	.	.	.
.	.	.	.	.	.	.	.	.	.	12ryy	.	.	.	.
8r	.	8r	.	8r	.	8r	.	8r	.	6.ryy	.	8c'	.	4ryy
8CC	.	8CC	.	8G	.	8c	.	8en	.	.	.	8d'	.	4ryy
=	=	=	=	=	=	=	=	=	=	=	=	=	=	=
8FF	.	8FF	.	8A	.	8c	.	8f	.	12ryy	.	8e-'	.	4ryy
.	.	.	.	.	.	.	.	.	.	12ryy	.	.	.	.
8r	.	8r	.	8r	.	8r	.	8r	.	.	.	8d'	.	4ryy
.	.	.	.	.	.	.	.	.	.	12ryy	.	.	.	.
8r	.	8r	.	8r	.	8r	.	8r	.	6.ryy	.	8c'	.	4ryy
8CC	.	8CC	.	8G	.	8c	.	8en	.	.	.	8d'	.	4ryy
=	=	=	=	=	=	=	=	=	=	=	=	=	=	=
8FF	.	8FF	.	8A	.	8c	.	8f	.	12ryy	.	4e-	.	4ryy
.	.	.	.	.	.	.	.	.	.	12ryy	.	.	.	.
8r	.	8r	.	8r	.	8r	.	8r	.	.	.	.	.	.
.	.	.	.	.	.	.	.	.	.	12ryy	.	.	.	.
8AAA-X	4ryy	8AA-X	4ryy	8E-	4ryy	8A-X	4ryy	8c	4ryy	12ryy	4ryy	4r	.	.
.	.	.	.	.	.	.	.	.	.	12ryy	.	.	.	.
8r	.	8r	.	8r	.	8r	.	8r	.	.	.	.	.	.
.	.	.	.	.	.	.	.	.	.	12ryy	.	.	.	.
=	=	=	=	=	=	=	=	=	=	=	=	=	=	=
4r	.	4r	.	4r	.	4r	.	4r	.	12ryy	.	2r	.	.
.	.	.	.	.	.	.	.	.	.	12ryy	.	.	.	.
.	.	.	.	.	.	.	.	.	.	12ryy	.	.	.	.
8GG^	4ryy	8BB-^L	4ryy	8d^	4ryy	8g^	4ryy	8b-^	4ryy	12ryy	4ryy	.	.	.
.	.	.	.	.	.	.	.	.	.	12ryy	4ryy	.	.	.
8r	.	8DJ	.	8r	.	8r	.	8r	.	.	.	.	.	.
.	.	.	.	.	.	.	.	.	.	12ryy	.	.	.	.
=	=	=	=	=	=	=	=	=	=	=	=	=	=	=
8AA	.	8C	.	8cL	.	8f	.	8a	.	12ryy	.	4.B-	.	4ryy
.	.	.	.	.	.	.	.	.	.	12ryy	.	.	.	.
8r	.	8r	.	8dJ	.	8r	.	8r	.	.	.	.	.	.
.	.	.	.	.	.	.	.	.	.	12ryy	.	.	.	.
8BB-	.	8D	.	8B-	.	8e-	.	8gL	.	12ryy	.	.	.	.
.	.	.	.	.	.	.	.	.	.	12ryy	.	.	.	.
8r	.	8r	.	8r	.	8r	.	8b-J	.	.	.	8B-	.	4ryy
.	.	.	.	.	.	.	.	.	.	12ryy	.	.	.	.
=	=	=	=	=	=	=	=	=	=	=	=	=	=	=
8EE-^L	.	8BB-^	.	8c^	.	8f^	.	8a^	.	12ryy	.	8c	.	4ryy
.	.	.	.	.	.	.	.	.	.	12ryy	.	.	.	.
8CCJ	.	8r	.	8r	.	8r	.	8r	.	.	.	8r	.	.
.	.	.	.	.	.	.	.	.	.	12ryy	.	.	.	.
8FF	.	8C	.	8B-	.	8e-L	.	8g	.	12ryy	.	8d	.	4ryy
.	.	.	.	.	.	.	.	.	.	12ryy	.	.	.	.
8r	.	8r	.	8r	.	8dJ	.	8r	.	.	.	8r	.	.
.	.	.	.	.	.	.	.	.	.	12ryy	.	.	.	.
=	=	=	=	=	=	=	=	=	=	=	=	=	=	=
8GG	.	8DL	.	8A	.	8c	.	8f	.	12ryy	.	8e-	.	4ryy
.	.	.	.	.	.	.	.	.	.	12ryy	.	.	.	.
8r	.	8GJ	.	8r	.	8r	.	8r	.	.	.	8r	.	.
.	.	.	.	.	.	.	.	.	.	12ryy	.	.	.	.
8AA	.	8En	.	8A	.	8c#X	.	8enL	.	12ryy	.	8f	.	4ryy
.	.	.	.	.	.	.	.	.	.	12ryy	.	.	.	.
8r	.	8r	.	8r	.	8r	.	8aJ	.	.	.	8r	.	.
.	.	.	.	.	.	.	.	.	.	12ryy	.	.	.	.
=	=	=	=	=	=	=	=	=	=	=	=	=	=	=
8D	.	8F#XL	4ryy	8AL	4ryy	8dL	4ryy	8dL	4ryy	6.ryy	.	4.f#X	.	4ryy
8r	.	8AAJ	.	8GJ	.	8AJ	.	8enJ	.	.	.	.	.	.
4r	.	8D	4ryy	8F#X	4ryy	8A	.	8d	.	12ryy	.	.	.	.
.	.	.	.	.	.	.	.	.	.	12ryy	.	.	.	.
.	.	8r	.	8r	.	8r	4ryy	8r	4ryy	.	.	8r	.	.
.	.	.	.	.	.	.	.	.	.	12ryy	.	.	.	.
=	=	=	=	=	=	=	=	=	=	=	=	=	=	=
2r	.	8r	.	8r	.	8r	.	8r	.	6.ryy	.	2r	.	.
.	.	8AA	4ryy	8G	4ryy	8A	4ryy	8en	4ryy	.	.	.	.	.
.	.	8D	4ryy	8F#X	.	8A	.	8d	.	12ryy	.	.	.	.
.	.	.	.	.	.	.	.	.	.	12ryy	.	.	.	.
.	.	8r	.	8r	4ryy	8r	4ryy	8r	4ryy	.	.	.	.	.
.	.	.	.	.	.	.	.	.	.	12ryy	.	.	.	.
=	=	=	=	=	=	=	=	=	=	=	=	=	=	=
*-	*-	*-	*-	*-	*-	*-	*-	*-	*-	*-	*-	*-	*-	*-
!!!system-decoration: s1,s2[(s3,s4,s5,s6,s7)]
!!!EED:Jason Lee
!!!EEV:2022/01/27
